X: 25980
T: Maybelle's Compliments To Cameron
R: strathspey
M: 4/4
K: Edorian
B<ee>f e>d B2|(3ABc d>A F<AF>D|B<ee>f e>dB<d|B<GA>F E/E/E E2:|
g>fe>g B/B/B e<g|f>ed>f A/A/A d<f|g>fe<g f>ed<f|B<GA>F E/E/E Ef|
g>fe>g B/B/B e<g|f>ed>f A/A/A e<f|g>ba<f g>ef<d|B<GA>F E/E/E Ef:|

